Newaita-dark/apps/48/gnome-2048.svg

<svg height="48" viewBox="0 0 48 48" width="48" xmlns="http://www.w3.org/2000/svg" xmlns:xlink="http://www.w3.org/1999/xlink"><linearGradient id="a" gradientUnits="userSpaceOnUse" x1="23.81478" x2="23.81478" y1="41.2056285" y2="43.19019450005"><stop offset="0" stop-opacity=".27451"/><stop offset="1" stop-opacity="0"/></linearGradient><linearGradient id="b"><stop offset="0" stop-opacity=".313726"/><stop offset=".222222" stop-opacity=".27451"/><stop offset="1" stop-opacity="0"/></linearGradient><radialGradient id="c" cx="450.908936" cy="189.579361" gradientTransform="matrix(.00000026 -.117199 -.210958 -.00000015 77.203689 94.547723)" gradientUnits="userSpaceOnUse" r="21.166656" xlink:href="#b"/><radialGradient id="d" cx="450.908936" cy="189.579361" gradientTransform="matrix(-.00000026 .117199 .210958 .00000015 -29.574145 -12.136494)" gradientUnits="userSpaceOnUse" r="21.166656" xlink:href="#b"/><radialGradient id="e" cx="450.908936" cy="189.579361" gradientTransform="matrix(-.00000026 -.117199 .210958 -.00000015 -29.574145 94.547723)" gradientUnits="userSpaceOnUse" r="21.166656" xlink:href="#b"/><radialGradient id="f" cx="450.908936" cy="189.579361" gradientTransform="matrix(.00000026 .117199 -.210958 .00000015 77.203686 -12.136495)" gradientUnits="userSpaceOnUse" r="21.166656" xlink:href="#b"/><linearGradient id="g"><stop offset="0" stop-color="#e0e0e0"/><stop offset="1" stop-color="#eee"/></linearGradient><linearGradient id="h" gradientUnits="userSpaceOnUse" x1="11.907393" x2="11.907393" xlink:href="#g" y1="17.24383068749" y2="5.33643825005"/><linearGradient id="i" gradientUnits="userSpaceOnUse" x1="35.722179" x2="35.722179" y1="17.24383068749" y2="5.33643825005"><stop offset="0" stop-color="#9ccc65"/><stop offset="1" stop-color="#aed581"/></linearGradient><linearGradient id="j" gradientUnits="userSpaceOnUse" x1="11.907393" x2="11.907393" xlink:href="#g" y1="41.05861725005" y2="29.15122349998"/><linearGradient id="k" gradientUnits="userSpaceOnUse" x1="11.907393" x2="11.907393" xlink:href="#g" y1="29.15122549998" y2="17.24383268749"/><linearGradient id="l" gradientUnits="userSpaceOnUse" x1="35.722179" x2="35.722179" y1="41.05861725005" y2="29.15122349998"><stop offset="0" stop-color="#ff7043"/><stop offset="1" stop-color="#ff8a65"/></linearGradient><linearGradient id="m" gradientUnits="userSpaceOnUse" x1="35.722179" x2="35.722179" y1="29.15122549998" y2="17.24383268749"><stop offset="0" stop-color="#29b6f6"/><stop offset="1" stop-color="#4fc3f7"/></linearGradient><linearGradient id="n" gradientUnits="userSpaceOnUse" x1="23.814786" x2="23.814786" y1="29.15122549998" y2="17.24383268749"><stop offset="0" stop-color="#ffa726"/><stop offset="1" stop-color="#ffb74d"/></linearGradient><linearGradient id="o" gradientUnits="userSpaceOnUse" x1="23.814786" x2="23.814786" y1="41.05861925005" y2="29.15122549998"><stop offset="0" stop-color="#ef5350"/><stop offset="1" stop-color="#e57373"/></linearGradient><linearGradient id="p" gradientUnits="userSpaceOnUse" x1="23.814786" x2="23.814786" xlink:href="#g" y1="17.24383268749" y2="5.33644025005"/><path d="m9.921875 41.132812h27.785156v2.132813h-27.785156zm0 0" fill="url(#a)"/><path d="m37.707031 41.207031h3.96875v-1.984375h-3.96875zm0 0" fill="url(#c)"/><path d="m9.921875 41.207031h-3.96875v1.984375h3.96875zm0 0" fill="url(#d)"/><path d="m9.921875 41.207031h-3.96875v-1.984375h3.96875zm0 0" fill="url(#e)"/><path d="m37.707031 41.207031h3.96875v1.984375h-3.96875zm0 0" fill="url(#f)"/><path d="m7.9375 5.335938c-1.097656 0-1.984375.886718-1.984375 1.984374v9.921876h11.90625v-11.90625zm0 0" fill="url(#h)"/><path d="m29.769531 5.335938v11.90625h11.90625v-9.921876c0-1.097656-.886719-1.984374-1.984375-1.984374zm0 0" fill="url(#i)"/><path d="m5.953125 29.152344v9.921875c0 1.097656.886719 1.984375 1.984375 1.984375h9.921875v-11.90625zm0 0" fill="url(#j)"/><path d="m5.953125 17.242188h11.90625v11.910156h-11.90625zm0 0" fill="url(#k)"/><path d="m29.769531 29.152344v11.90625h9.921875c1.097656 0 1.984375-.886719 1.984375-1.984375v-9.921875zm0 0" fill="url(#l)"/><path d="m29.769531 17.242188h11.90625v11.910156h-11.90625zm0 0" fill="url(#m)"/><path d="m17.859375 17.242188h11.910156v11.910156h-11.910156zm0 0" fill="url(#n)"/><path d="m17.859375 29.152344h11.910156v11.90625h-11.910156zm0 0" fill="url(#o)"/><path d="m17.859375 5.335938h11.910156v11.90625h-11.910156zm0 0" fill="url(#p)"/><path d="m7.9375 5.335938c-1.097656 0-1.984375.886718-1.984375 1.984374v.269532c0-1.097656.886719-1.984375 1.984375-1.984375h31.753906c1.097656 0 1.984375.886719 1.984375 1.984375v-.269532c0-1.097656-.886719-1.984374-1.984375-1.984374zm0 0" fill="#fff" fill-opacity=".784314"/><path d="m7.9375 41.082031c-1.097656 0-1.984375-.886719-1.984375-1.984375v-.273437c0 1.101562.886719 1.984375 1.984375 1.984375h31.753906c1.097656 0 1.984375-.882813 1.984375-1.984375v.273437c0 1.097656-.886719 1.984375-1.984375 1.984375zm0 0" fill-opacity=".235294"/><g fill="#fff"><path d="m5.953125 17.242188v.496093h11.90625v-.496093zm0 0"/><path d="m7.9375 5.335938c-1.097656 0-1.984375.886718-1.984375 1.984374v.496094c0-1.097656.886719-1.984375 1.984375-1.984375h9.921875v-.496093zm0 0"/><path d="m29.769531 5.335938v.496093h9.921875c1.097656 0 1.984375.886719 1.984375 1.984375v-.496094c0-1.097656-.886719-1.984374-1.984375-1.984374zm0 0" fill-opacity=".588235"/><path d="m5.953125 29.152344v.496094h11.90625v-.496094zm0 0" fill-opacity=".980645"/><path d="m29.769531 29.152344v.496094h11.90625v-.496094zm0 0" fill-opacity=".392157"/><path d="m29.769531 17.242188v.496093h11.90625v-.496093zm0 0" fill-opacity=".392157"/><path d="m17.859375 17.242188v.496093h11.910156v-.496093zm0 0" fill-opacity=".784314"/><path d="m17.859375 29.152344v.496094h11.910156v-.496094zm0 0" fill-opacity=".392157"/><path d="m17.859375 5.335938v.496093h11.910156v-.496093zm0 0"/></g><path d="m5.953125 28.65625v.496094h11.90625v-.496094zm0 0" fill-opacity=".235294"/><path d="m5.953125 16.746094v.496094h11.90625v-.496094zm0 0" fill-opacity=".235294"/><path d="m29.769531 16.746094v.496094h11.90625v-.496094zm0 0" fill-opacity=".235294"/><path d="m5.953125 38.578125v.496094c0 1.097656.886719 1.984375 1.984375 1.984375h9.921875v-.496094h-9.921875c-1.097656 0-1.984375-.886719-1.984375-1.984375zm0 0" fill-opacity=".235294"/><path d="m41.675781 38.578125c0 1.097656-.886719 1.984375-1.984375 1.984375h-9.921875v.496094h9.921875c1.097656 0 1.984375-.886719 1.984375-1.984375zm0 0" fill-opacity=".235294"/><path d="m29.769531 28.65625v.496094h11.90625v-.496094zm0 0" fill-opacity=".235294"/><path d="m17.859375 28.65625v.496094h11.910156v-.496094zm0 0" fill-opacity=".235294"/><path d="m17.859375 40.5625v.496094h11.910156v-.496094zm0 0" fill-opacity=".235294"/><path d="m17.859375 16.746094v.496094h11.910156v-.496094zm0 0" fill-opacity=".235294"/><path d="m7.9375 5.195312c-1.175781 0-2.125.949219-2.125 2.125v31.753907c0 1.175781.949219 2.125 2.125 2.125h31.753906c1.175782 0 2.125-.949219 2.125-2.125v-31.753907c0-1.175781-.949218-2.125-2.125-2.125zm10.0625.28125h11.628906v11.625h-11.628906zm-10.0625 0h9.78125v11.625h-11.625v-9.78125c0-1.023437.820312-1.84375 1.84375-1.84375zm21.972656 0h9.78125c1.023438 0 1.84375.820313 1.84375 1.84375v9.78125h-11.625zm-11.910156 11.90625h11.628906v11.628907h-11.628906zm-11.90625 0h11.625v11.628907h-11.625zm23.816406 0h11.625v11.628907h-11.625zm-11.910156 11.910157h11.628906v11.625h-11.628906zm11.910156 0h11.625v9.78125c0 1.023437-.820312 1.84375-1.84375 1.84375h-9.78125zm-23.816406 0h11.625v11.625h-9.78125c-1.023438 0-1.84375-.820313-1.84375-1.84375zm0 0" fill="#212121"/></svg>

<?xml version="1.0" encoding="UTF-8"?>
<svg xmlns="http://www.w3.org/2000/svg" xmlns:xlink="http://www.w3.org/1999/xlink" width="48px" height="48px" viewBox="0 0 48 48" version="1.1">
<defs>
<linearGradient id="linear0" gradientUnits="userSpaceOnUse" x1="254" y1="233.5" x2="254" y2="254.666672" gradientTransform="matrix(0.093759,0,0,0.093759,-0.00000572259,19.312902)">
<stop offset="0" style="stop-color:rgb(0%,0%,0%);stop-opacity:0.27451;"/>
<stop offset="1" style="stop-color:rgb(0%,0%,0%);stop-opacity:0;"/>
</linearGradient>
<radialGradient id="radial0" gradientUnits="userSpaceOnUse" cx="450.908936" cy="189.579361" fx="450.908936" fy="189.579361" r="21.166656" gradientTransform="matrix(0.000000261256,-0.117199,-0.210958,-0.000000152308,77.203689,94.547723)">
<stop offset="0" style="stop-color:rgb(0%,0%,0%);stop-opacity:0.313726;"/>
<stop offset="0.222222" style="stop-color:rgb(0%,0%,0%);stop-opacity:0.27451;"/>
<stop offset="1" style="stop-color:rgb(0%,0%,0%);stop-opacity:0;"/>
</radialGradient>
<radialGradient id="radial1" gradientUnits="userSpaceOnUse" cx="450.908936" cy="189.579361" fx="450.908936" fy="189.579361" r="21.166656" gradientTransform="matrix(-0.000000261256,0.117199,0.210958,0.000000152308,-29.574145,-12.136494)">
<stop offset="0" style="stop-color:rgb(0%,0%,0%);stop-opacity:0.313726;"/>
<stop offset="0.222222" style="stop-color:rgb(0%,0%,0%);stop-opacity:0.27451;"/>
<stop offset="1" style="stop-color:rgb(0%,0%,0%);stop-opacity:0;"/>
</radialGradient>
<radialGradient id="radial2" gradientUnits="userSpaceOnUse" cx="450.908936" cy="189.579361" fx="450.908936" fy="189.579361" r="21.166656" gradientTransform="matrix(-0.000000261256,-0.117199,0.210958,-0.000000152308,-29.574145,94.547723)">
<stop offset="0" style="stop-color:rgb(0%,0%,0%);stop-opacity:0.313726;"/>
<stop offset="0.222222" style="stop-color:rgb(0%,0%,0%);stop-opacity:0.27451;"/>
<stop offset="1" style="stop-color:rgb(0%,0%,0%);stop-opacity:0;"/>
</radialGradient>
<radialGradient id="radial3" gradientUnits="userSpaceOnUse" cx="450.908936" cy="189.579361" fx="450.908936" fy="189.579361" r="21.166656" gradientTransform="matrix(0.000000261256,0.117199,-0.210958,0.000000152308,77.203686,-12.136495)">
<stop offset="0" style="stop-color:rgb(0%,0%,0%);stop-opacity:0.313726;"/>
<stop offset="0.222222" style="stop-color:rgb(0%,0%,0%);stop-opacity:0.27451;"/>
<stop offset="1" style="stop-color:rgb(0%,0%,0%);stop-opacity:0;"/>
</radialGradient>
<linearGradient id="linear1" gradientUnits="userSpaceOnUse" x1="127" y1="-31.083334" x2="127" y2="-158.083328" gradientTransform="matrix(0.093759,0,0,0.093759,0,20.158173)">
<stop offset="0" style="stop-color:rgb(87.843138%,87.843138%,87.843138%);stop-opacity:1;"/>
<stop offset="1" style="stop-color:rgb(93.333334%,93.333334%,93.333334%);stop-opacity:1;"/>
</linearGradient>
<linearGradient id="linear2" gradientUnits="userSpaceOnUse" x1="381" y1="-31.083334" x2="381" y2="-158.083328" gradientTransform="matrix(0.093759,0,0,0.093759,0,20.158173)">
<stop offset="0" style="stop-color:rgb(61.176473%,80.000001%,39.607844%);stop-opacity:1;"/>
<stop offset="1" style="stop-color:rgb(68.235296%,83.529413%,50.588238%);stop-opacity:1;"/>
</linearGradient>
<linearGradient id="linear3" gradientUnits="userSpaceOnUse" x1="127" y1="222.916672" x2="127" y2="95.916664" gradientTransform="matrix(0.093759,0,0,0.093759,0,20.158173)">
<stop offset="0" style="stop-color:rgb(87.843138%,87.843138%,87.843138%);stop-opacity:1;"/>
<stop offset="1" style="stop-color:rgb(93.333334%,93.333334%,93.333334%);stop-opacity:1;"/>
</linearGradient>
<linearGradient id="linear4" gradientUnits="userSpaceOnUse" x1="127" y1="95.916664" x2="127" y2="-31.083334" gradientTransform="matrix(0.093759,0,0,0.093759,0,20.158175)">
<stop offset="0" style="stop-color:rgb(87.843138%,87.843138%,87.843138%);stop-opacity:1;"/>
<stop offset="1" style="stop-color:rgb(93.333334%,93.333334%,93.333334%);stop-opacity:1;"/>
</linearGradient>
<linearGradient id="linear5" gradientUnits="userSpaceOnUse" x1="381" y1="222.916672" x2="381" y2="95.916664" gradientTransform="matrix(0.093759,0,0,0.093759,0,20.158173)">
<stop offset="0" style="stop-color:rgb(100%,43.921569%,26.274511%);stop-opacity:1;"/>
<stop offset="1" style="stop-color:rgb(100%,54.11765%,39.607844%);stop-opacity:1;"/>
</linearGradient>
<linearGradient id="linear6" gradientUnits="userSpaceOnUse" x1="381" y1="95.916664" x2="381" y2="-31.083334" gradientTransform="matrix(0.093759,0,0,0.093759,0,20.158175)">
<stop offset="0" style="stop-color:rgb(16.078432%,71.372551%,96.470588%);stop-opacity:1;"/>
<stop offset="1" style="stop-color:rgb(30.980393%,76.47059%,96.862745%);stop-opacity:1;"/>
</linearGradient>
<linearGradient id="linear7" gradientUnits="userSpaceOnUse" x1="254" y1="95.916664" x2="254" y2="-31.083334" gradientTransform="matrix(0.093759,0,0,0.093759,0,20.158175)">
<stop offset="0" style="stop-color:rgb(100%,65.490198%,14.901961%);stop-opacity:1;"/>
<stop offset="1" style="stop-color:rgb(100%,71.764708%,30.19608%);stop-opacity:1;"/>
</linearGradient>
<linearGradient id="linear8" gradientUnits="userSpaceOnUse" x1="254" y1="222.916672" x2="254" y2="95.916664" gradientTransform="matrix(0.093759,0,0,0.093759,0,20.158175)">
<stop offset="0" style="stop-color:rgb(93.725491%,32.549021%,31.37255%);stop-opacity:1;"/>
<stop offset="1" style="stop-color:rgb(89.803922%,45.09804%,45.09804%);stop-opacity:1;"/>
</linearGradient>
<linearGradient id="linear9" gradientUnits="userSpaceOnUse" x1="254" y1="-31.083334" x2="254" y2="-158.083328" gradientTransform="matrix(0.093759,0,0,0.093759,0,20.158175)">
<stop offset="0" style="stop-color:rgb(87.843138%,87.843138%,87.843138%);stop-opacity:1;"/>
<stop offset="1" style="stop-color:rgb(93.333334%,93.333334%,93.333334%);stop-opacity:1;"/>
</linearGradient>
</defs>
<g id="surface1">
<path style=" stroke:none;fill-rule:nonzero;fill:url(#linear0);" d="M 9.921875 41.132812 L 37.707031 41.132812 L 37.707031 43.265625 L 9.921875 43.265625 Z M 9.921875 41.132812 "/>
<path style=" stroke:none;fill-rule:nonzero;fill:url(#radial0);" d="M 37.707031 41.207031 L 41.675781 41.207031 L 41.675781 39.222656 L 37.707031 39.222656 Z M 37.707031 41.207031 "/>
<path style=" stroke:none;fill-rule:nonzero;fill:url(#radial1);" d="M 9.921875 41.207031 L 5.953125 41.207031 L 5.953125 43.191406 L 9.921875 43.191406 Z M 9.921875 41.207031 "/>
<path style=" stroke:none;fill-rule:nonzero;fill:url(#radial2);" d="M 9.921875 41.207031 L 5.953125 41.207031 L 5.953125 39.222656 L 9.921875 39.222656 Z M 9.921875 41.207031 "/>
<path style=" stroke:none;fill-rule:nonzero;fill:url(#radial3);" d="M 37.707031 41.207031 L 41.675781 41.207031 L 41.675781 43.191406 L 37.707031 43.191406 Z M 37.707031 41.207031 "/>
<path style=" stroke:none;fill-rule:nonzero;fill:url(#linear1);" d="M 7.9375 5.335938 C 6.839844 5.335938 5.953125 6.222656 5.953125 7.320312 L 5.953125 17.242188 L 17.859375 17.242188 L 17.859375 5.335938 Z M 7.9375 5.335938 "/>
<path style=" stroke:none;fill-rule:nonzero;fill:url(#linear2);" d="M 29.769531 5.335938 L 29.769531 17.242188 L 41.675781 17.242188 L 41.675781 7.320312 C 41.675781 6.222656 40.789062 5.335938 39.691406 5.335938 Z M 29.769531 5.335938 "/>
<path style=" stroke:none;fill-rule:nonzero;fill:url(#linear3);" d="M 5.953125 29.152344 L 5.953125 39.074219 C 5.953125 40.171875 6.839844 41.058594 7.9375 41.058594 L 17.859375 41.058594 L 17.859375 29.152344 Z M 5.953125 29.152344 "/>
<path style=" stroke:none;fill-rule:nonzero;fill:url(#linear4);" d="M 5.953125 17.242188 L 17.859375 17.242188 L 17.859375 29.152344 L 5.953125 29.152344 Z M 5.953125 17.242188 "/>
<path style=" stroke:none;fill-rule:nonzero;fill:url(#linear5);" d="M 29.769531 29.152344 L 29.769531 41.058594 L 39.691406 41.058594 C 40.789062 41.058594 41.675781 40.171875 41.675781 39.074219 L 41.675781 29.152344 Z M 29.769531 29.152344 "/>
<path style=" stroke:none;fill-rule:nonzero;fill:url(#linear6);" d="M 29.769531 17.242188 L 41.675781 17.242188 L 41.675781 29.152344 L 29.769531 29.152344 Z M 29.769531 17.242188 "/>
<path style=" stroke:none;fill-rule:nonzero;fill:url(#linear7);" d="M 17.859375 17.242188 L 29.769531 17.242188 L 29.769531 29.152344 L 17.859375 29.152344 Z M 17.859375 17.242188 "/>
<path style=" stroke:none;fill-rule:nonzero;fill:url(#linear8);" d="M 17.859375 29.152344 L 29.769531 29.152344 L 29.769531 41.058594 L 17.859375 41.058594 Z M 17.859375 29.152344 "/>
<path style=" stroke:none;fill-rule:nonzero;fill:url(#linear9);" d="M 17.859375 5.335938 L 29.769531 5.335938 L 29.769531 17.242188 L 17.859375 17.242188 Z M 17.859375 5.335938 "/>
<path style=" stroke:none;fill-rule:nonzero;fill:rgb(100%,100%,100%);fill-opacity:0.784314;" d="M 7.9375 5.335938 C 6.839844 5.335938 5.953125 6.222656 5.953125 7.320312 L 5.953125 7.589844 C 5.953125 6.492188 6.839844 5.605469 7.9375 5.605469 L 39.691406 5.605469 C 40.789062 5.605469 41.675781 6.492188 41.675781 7.589844 L 41.675781 7.320312 C 41.675781 6.222656 40.789062 5.335938 39.691406 5.335938 Z M 7.9375 5.335938 "/>
<path style=" stroke:none;fill-rule:nonzero;fill:rgb(0%,0%,0%);fill-opacity:0.235294;" d="M 7.9375 41.082031 C 6.839844 41.082031 5.953125 40.195312 5.953125 39.097656 L 5.953125 38.824219 C 5.953125 39.925781 6.839844 40.808594 7.9375 40.808594 L 39.691406 40.808594 C 40.789062 40.808594 41.675781 39.925781 41.675781 38.824219 L 41.675781 39.097656 C 41.675781 40.195312 40.789062 41.082031 39.691406 41.082031 Z M 7.9375 41.082031 "/>
<path style=" stroke:none;fill-rule:nonzero;fill:rgb(100%,100%,100%);fill-opacity:1;" d="M 5.953125 17.242188 L 5.953125 17.738281 L 17.859375 17.738281 L 17.859375 17.242188 Z M 5.953125 17.242188 "/>
<path style=" stroke:none;fill-rule:nonzero;fill:rgb(100%,100%,100%);fill-opacity:1;" d="M 7.9375 5.335938 C 6.839844 5.335938 5.953125 6.222656 5.953125 7.320312 L 5.953125 7.816406 C 5.953125 6.71875 6.839844 5.832031 7.9375 5.832031 L 17.859375 5.832031 L 17.859375 5.335938 Z M 7.9375 5.335938 "/>
<path style=" stroke:none;fill-rule:nonzero;fill:rgb(100%,100%,100%);fill-opacity:0.588235;" d="M 29.769531 5.335938 L 29.769531 5.832031 L 39.691406 5.832031 C 40.789062 5.832031 41.675781 6.71875 41.675781 7.816406 L 41.675781 7.320312 C 41.675781 6.222656 40.789062 5.335938 39.691406 5.335938 Z M 29.769531 5.335938 "/>
<path style=" stroke:none;fill-rule:nonzero;fill:rgb(100%,100%,100%);fill-opacity:0.980645;" d="M 5.953125 29.152344 L 5.953125 29.648438 L 17.859375 29.648438 L 17.859375 29.152344 Z M 5.953125 29.152344 "/>
<path style=" stroke:none;fill-rule:nonzero;fill:rgb(100%,100%,100%);fill-opacity:0.392157;" d="M 29.769531 29.152344 L 29.769531 29.648438 L 41.675781 29.648438 L 41.675781 29.152344 Z M 29.769531 29.152344 "/>
<path style=" stroke:none;fill-rule:nonzero;fill:rgb(100%,100%,100%);fill-opacity:0.392157;" d="M 29.769531 17.242188 L 29.769531 17.738281 L 41.675781 17.738281 L 41.675781 17.242188 Z M 29.769531 17.242188 "/>
<path style=" stroke:none;fill-rule:nonzero;fill:rgb(100%,100%,100%);fill-opacity:0.784314;" d="M 17.859375 17.242188 L 17.859375 17.738281 L 29.769531 17.738281 L 29.769531 17.242188 Z M 17.859375 17.242188 "/>
<path style=" stroke:none;fill-rule:nonzero;fill:rgb(100%,100%,100%);fill-opacity:0.392157;" d="M 17.859375 29.152344 L 17.859375 29.648438 L 29.769531 29.648438 L 29.769531 29.152344 Z M 17.859375 29.152344 "/>
<path style=" stroke:none;fill-rule:nonzero;fill:rgb(100%,100%,100%);fill-opacity:1;" d="M 17.859375 5.335938 L 17.859375 5.832031 L 29.769531 5.832031 L 29.769531 5.335938 Z M 17.859375 5.335938 "/>
<path style=" stroke:none;fill-rule:nonzero;fill:rgb(0%,0%,0%);fill-opacity:0.235294;" d="M 5.953125 28.65625 L 5.953125 29.152344 L 17.859375 29.152344 L 17.859375 28.65625 Z M 5.953125 28.65625 "/>
<path style=" stroke:none;fill-rule:nonzero;fill:rgb(0%,0%,0%);fill-opacity:0.235294;" d="M 5.953125 16.746094 L 5.953125 17.242188 L 17.859375 17.242188 L 17.859375 16.746094 Z M 5.953125 16.746094 "/>
<path style=" stroke:none;fill-rule:nonzero;fill:rgb(0%,0%,0%);fill-opacity:0.235294;" d="M 29.769531 16.746094 L 29.769531 17.242188 L 41.675781 17.242188 L 41.675781 16.746094 Z M 29.769531 16.746094 "/>
<path style=" stroke:none;fill-rule:nonzero;fill:rgb(0%,0%,0%);fill-opacity:0.235294;" d="M 5.953125 38.578125 L 5.953125 39.074219 C 5.953125 40.171875 6.839844 41.058594 7.9375 41.058594 L 17.859375 41.058594 L 17.859375 40.5625 L 7.9375 40.5625 C 6.839844 40.5625 5.953125 39.675781 5.953125 38.578125 Z M 5.953125 38.578125 "/>
<path style=" stroke:none;fill-rule:nonzero;fill:rgb(0%,0%,0%);fill-opacity:0.235294;" d="M 41.675781 38.578125 C 41.675781 39.675781 40.789062 40.5625 39.691406 40.5625 L 29.769531 40.5625 L 29.769531 41.058594 L 39.691406 41.058594 C 40.789062 41.058594 41.675781 40.171875 41.675781 39.074219 Z M 41.675781 38.578125 "/>
<path style=" stroke:none;fill-rule:nonzero;fill:rgb(0%,0%,0%);fill-opacity:0.235294;" d="M 29.769531 28.65625 L 29.769531 29.152344 L 41.675781 29.152344 L 41.675781 28.65625 Z M 29.769531 28.65625 "/>
<path style=" stroke:none;fill-rule:nonzero;fill:rgb(0%,0%,0%);fill-opacity:0.235294;" d="M 17.859375 28.65625 L 17.859375 29.152344 L 29.769531 29.152344 L 29.769531 28.65625 Z M 17.859375 28.65625 "/>
<path style=" stroke:none;fill-rule:nonzero;fill:rgb(0%,0%,0%);fill-opacity:0.235294;" d="M 17.859375 40.5625 L 17.859375 41.058594 L 29.769531 41.058594 L 29.769531 40.5625 Z M 17.859375 40.5625 "/>
<path style=" stroke:none;fill-rule:nonzero;fill:rgb(0%,0%,0%);fill-opacity:0.235294;" d="M 17.859375 16.746094 L 17.859375 17.242188 L 29.769531 17.242188 L 29.769531 16.746094 Z M 17.859375 16.746094 "/>
<path style=" stroke:none;fill-rule:nonzero;fill:rgb(12.941177%,12.941177%,12.941177%);fill-opacity:1;" d="M 7.9375 5.195312 C 6.761719 5.195312 5.8125 6.144531 5.8125 7.320312 L 5.8125 39.074219 C 5.8125 40.25 6.761719 41.199219 7.9375 41.199219 L 39.691406 41.199219 C 40.867188 41.199219 41.816406 40.25 41.816406 39.074219 L 41.816406 7.320312 C 41.816406 6.144531 40.867188 5.195312 39.691406 5.195312 Z M 18 5.476562 L 29.628906 5.476562 L 29.628906 17.101562 L 18 17.101562 Z M 7.9375 5.476562 L 17.71875 5.476562 L 17.71875 17.101562 L 6.09375 17.101562 L 6.09375 7.320312 C 6.09375 6.296875 6.914062 5.476562 7.9375 5.476562 Z M 29.910156 5.476562 L 39.691406 5.476562 C 40.714844 5.476562 41.535156 6.296875 41.535156 7.320312 L 41.535156 17.101562 L 29.910156 17.101562 Z M 18 17.382812 L 29.628906 17.382812 L 29.628906 29.011719 L 18 29.011719 Z M 6.09375 17.382812 L 17.71875 17.382812 L 17.71875 29.011719 L 6.09375 29.011719 Z M 29.910156 17.382812 L 41.535156 17.382812 L 41.535156 29.011719 L 29.910156 29.011719 Z M 18 29.292969 L 29.628906 29.292969 L 29.628906 40.917969 L 18 40.917969 Z M 29.910156 29.292969 L 41.535156 29.292969 L 41.535156 39.074219 C 41.535156 40.097656 40.714844 40.917969 39.691406 40.917969 L 29.910156 40.917969 Z M 6.09375 29.292969 L 17.71875 29.292969 L 17.71875 40.917969 L 7.9375 40.917969 C 6.914062 40.917969 6.09375 40.097656 6.09375 39.074219 Z M 6.09375 29.292969 "/>
</g>
</svg>
